X:1
T: Tara
C:Bruce Shawyer
R:Jig
Q:180
K:Am
M:6/8
L:1/16
A2^G2A2 B2c2B2|A2^G2A2 B2c2B2|A2z2A2 c2z2d2|e6-e4z2|f2g2f2 e2f2e2|d2e2d2 c2d2c2|B2c2B2 A2B2A2|^G2A2B2 E6|
A2^G2A2 B2c2B2|A2^G2A2 B2c2B2|A2z2A2 c2z2d2|e6-e4z2|f2g2f2 e2f2e2|d2e2d2 c2d2c2|B2z2B2 e2z2e2|A6-A4z2|
c2d2e2 e2f2g2|g2f2e2 e2d2c2|d2z2d2 g2z2g2|e6 c4z2|A2B2c2 c2d2e2|e2d2c2 c2B2A2|B2z2B2 e2z2e2|c6 A4z2|
c2d2e2 e2f2g2|g2f2e2 e2d2c2|d2z2d2 g2z2g2|e6 c4z2|z2A2c2 e2c2A2|z2A2c2 e2c2A2|e2f2e2 d2c2B2|A6-A4z2||
